X:213
T: DEN LIEBSTEN BRUDER
N: K3050
O: Europa, Mitteleuropa, Deutschland, Saar - und Mosel - Gebiet
R: Kinder - Lied; Trink - Lied
M: 3/4
L: 1/16
K: G
D2 | G3GG6A2 | B3BB6
B2 | A2B2c4A4 | c4B4z2
d2 | d2B2e6d2 | d3cc6
c2 | c2A2d6c2 | c4B4z2
d2 | d2B2e6d2 | d3cc6
c2 | c2A2d6c2 | c4B4z2

@@@ Tune index: 7550
